!!!COM: Palestrina, Giovanni Perluigi da
!!!OPR: Missa Nasce la gioia mia
!!!OMD: Credo
!!!OTL: Crucifixus
**kern	**kern	**kern	**kern
*Itenor	*Itenor	*Icalto	*Icant
!Tenor 2	!Tenor 1	!Altus	!Cantus
*clefGv2	*clefGv2	*clefG2	*clefG2
*k[b-]	*k[b-]	*k[b-]	*k[b-]
*G:dor	*G:dor	*G:dor	*G:dor
*M4/2	*M4/2	*M4/2	*M4/2
=75	=75	=75	=75
0r	1r	1r	1a
.	1d	2r	1a
.	.	[2a	.
=76	=76	=76	=76
0r	1d	2a]	1.dd
.	.	2a	.
.	2g	2b	.
.	2c	2cc	2ee
=77	=77	=77	=77
0r	1.d	2a	2.ff
.	.	2a	.
.	.	.	4ee
.	.	2b-	2dd
.	2d	[2a	2dd
=78	=78	=78	=78
0r	2e-	4a]	2b-
.	.	4g	.
.	2c	1g	2cc
.	1d	.	1a
.	.	2f#	.
=79	=79	=79	=79
0G	2d	1g	1b
.	2d	.	.
.	[1g	2r	1b
.	.	2d	.
=80	=80	=80	=80
2c	2g]	2e	1.cc
2F	2f	2a	.
[1G	2e	[1g	.
.	2d	.	2b-
=81	=81	=81	=81
2G]	4e	2g]	2g
.	4d	.	.
2G	2.d	2g	2b-
2A	.	2e	1a
.	4c	.	.
2F	[2c	2f	.
=82	=82	=82	=82
1G	2c]	1d	0g
.	2B	.	.
1r	1c	1e	.
=83	=83	=83	=83
0c	1.e	0g	0cc
.	2e	.	.
=84	=84	=84	=84
0F	2.f	0a	1cc
.	4e	.	.
.	2d	.	2.ff
.	2c	.	.
.	.	.	4ee
=85	=85	=85	=85
2.B-	2.d	1f	4dd
.	.	.	4cc
.	.	.	1b-
4A	4c	.	.
2G	4d	2g	.
.	4e	.	.
2F	4f	[2cc	2a
.	8e	.	.
.	8d	.	.
=86	=86	=86	=86
1c	2e	4cc]	2g
.	.	4b-	.
.	1f	2a	2cc
1c	.	1g	2.cc
.	2e	.	.
.	.	.	4b-
=87	=87	=87	=87
1F	1f	2f	1a
.	.	2cc	.
2f	1r	2a	1r
2d	.	2b-	.
=88	=88	=88	=88
2e-	1r	1g	2r
2c	.	.	1cc
1F	2r	1a	.
.	2f	.	2a
=89	=89	=89	=89
1r	2d	1r	2b-
.	2e-	.	1g
2r	2c	1cc	.
[2f	2F	.	2a
=90	=90	=90	=90
2f]	0r	2a	2cc
2d	.	2b-	2dd
2e-	.	2.g	2b-
2c	.	.	2cc
.	.	4g	.
=91	=91	=91	=91
1F	0r	4a	4cc
.	.	4g	4b-
.	.	4f	4a
.	.	4e	4g
2B-	.	2d	2f
2G	.	2g	2b-
=92	=92	=92	=92
2d	0r	2f	2a
2.G	.	2.b-	2.dd
4A	.	4a	4cc
4B-	.	[2g	2b-
4c	.	.	.
=93	=93	=93	=93
1d	1r	2g]	1a
.	.	2f#	.
1G	2r	2g	2g
.	2d	2b-	2dd
=94	=94	=94	=94
0r	2f	2a	1dd
.	2g	2b-	.
.	1c	4cc	4ee-
.	.	4b-	4dd
.	.	4a	4cc
.	.	4g	4b-
=95	=95	=95	=95
2r	1.d	4f	4a
.	.	4g	4g
2d	.	2.a	4f
.	.	.	4e
2f	.	.	2d
.	.	4d	.
2g	2G	2b-	2dd
=96	=96	=96	=96
1c	1r	4a	2.cc
.	.	4g	.
.	.	1g	.
.	.	.	4b-
1d	2r	.	1a
.	2d	2f#	.
=97	=97	=97	=97
1G	2d	2g	2g
.	2g	2b-	2dd
1r	2f	2a	2dd
.	2e-	2g	2gg
=98	=98	=98	=98
2r	2.d	1a	2.ff
2d	.	.	.
.	4c	.	4ee-
2d	4B-	1r	4dd
.	4A	.	4cc
2g	4G	.	4b-
.	4A	.	4cc
=99	=99	=99	=99
2.f	4B-	2r	4dd
.	4c	.	4ee
.	4d	2a	1ff
4e	4e	.	.
2d	4f	2a	.
.	4d	.	.
2c	[2g	2cc	2ee-
=100	=100	=100	=100
1d	2g]	2b-	1dd
.	2f#	2a	.
[1G	2g	2.b-	2dd
.	2r	.	2dd
.	.	4a	.
=101	=101	=101	=101
1G]	2r	4g	2dd
.	.	4a	.
.	2d	4b-	2gg
.	.	4g	.
1r	2d	2a	2ff
.	2g	2b-	2dd
=102	=102	=102	=102
0r	2f	1a	2.ff
.	2d	.	.
.	.	.	4ee-
.	2.g	2r	4dd
.	.	.	4cc
.	.	2g	2dd
.	4f	.	.
=103	=103	=103	=103
0r	4e-	2g	1ee-
.	4d	.	.
.	2c	2cc	.
.	1g	2b-	1dd
.	.	2g	.
=104	=104	=104	=104
1r	1c	2a	2.cc
.	.	1g	.
.	.	.	4b-
2r	1d	.	2.a
2d	.	4f#	.
.	.	4e	4g
=105	=105	=105	=105
2d	1r	2f#	2a
2g	.	2g	2b-
2.f	2r	1d	1a
.	2d	.	.
4d	.	.	.
=106	=106	=106	=106
2f	2d	0r	0r
2e	2g	.	.
[1d	2f	.	.
.	2d	.	.
=107	=107	=107	=107
2d]	2f	0r	1a
2c	2e	.	.
2.f	2d	.	2a
.	2B-	.	2dd
4g	.	.	.
=108	=108	=108	=108
2.a	2.f	0r	2cc
.	.	.	2a
4g	4g	.	.
2f	2a	.	2cc
2g	2g	.	2b-
=109	=109	=109	=109
1d	1f#	2r	2a
.	.	2d	2a
1G	2g	2d	2.b-
.	2G	2g	.
.	.	.	4b-
=110	=110	=110	=110
0r	1d	2f	2a
.	.	2d	1dd
.	1A	2f	.
.	.	2e	2cc
=111	=111	=111	=111
2r	0r	4d	1ff
.	.	4e	.
2d	.	4f	.
.	.	4g	.
2d	.	2a	2dd
2g	.	2b-	2dd
=112	=112	=112	=112
2.f	0r	2a	2dd
.	.	1a	2cc
8e-	.	.	.
8d	.	.	.
2e-	.	.	2.b-
2e-	.	[2g	.
.	.	.	8a
.	.	.	8g
=113	=113	=113	=113
1d	1r	2g]	2a
.	.	2f#	2a
2r	[1G	2g	2g
[2d	.	[2g	[2b-
=114	=114	=114	=114
2d]	2G]	2g]	2b-]
2d	2G	2g	2b-
1f	1F	1a	1cc
=115	=115	=115	=115
1d	2G	2g	2b-
.	2G	2b-	2dd
1r	2B-	2b-	2dd
.	2c	2g	2ee
=116	=116	=116	=116
1r	1F	4a	4ff
.	.	4g	4ee
.	.	4f	4dd
.	.	4e	4cc
2r	1G	2d	4b-
.	.	.	4a
2d	.	4G	4b-
.	.	4g	4cc
=117	=117	=117	=117
2f	0r	2a	1dd
2g	.	2b-	.
1c	.	4a	2.cc
.	.	4g	.
.	.	[2g	.
.	.	.	4b-
=118	=118	=118	=118
1d	1r	2g]	1a
.	.	2f#	.
2r	1d	2r	2r
[2d	.	[2a	[2dd
=119	=119	=119	=119
2d]	1f	2a]	2dd]
2d	.	2b	2dd
1c	1g	1cc	1ee-
=120	=120	=120	=120
1d	2f	2a	2dd
.	2d	2a	2ff
1r	2f	2a	2ff
.	2g	2b	2dd
=121	=121	=121	=121
0r	1c	4cc	4ee-
.	.	4b-	4dd
.	.	4a	4cc
.	.	4g	4b-
.	[1d	4f#	4a
.	.	4e	4g
.	.	2f#	2a
=122	=122	=122	=122
1G	2d]	2g	2g
.	2g	2b-	2dd
2B-	2f	2b-	2dd
2c	2e	2g	2cc
=123	=123	=123	=123
0F	0f	0a	0cc
=124	=124	=124	=124
0G	0d	0g	0b
*-	*-	*-	*-
!!!CDT: 1525/^1526/-1594/2/2
!!!OCY: Italia
!!!AGN: Mass (Parody)
!!!AST: renaissance, vocal
!!!ASW: Madrigal 1565 (Primavera)
!!!PWK: Masses, Book 5
!!!RNB: Cadence finals: D
!!!YOR: Le Opere Complete, v. 15, p. 161
!!!YOO: Rome, Italy: Fratelli Scalera
!!!END: 1992//
!!!EED: John Miller
!!!YEC: Copyright 2000, John Miller
!!!YEN: United States of America
!!!YEM: Rights to all derivative electronic formats reserved.
!!!YEM: Refer to licensing agreement for further details.
!!!YEM: This file must be accompanied by the licensing agreement.
!!!YEM: A copy of the licensing agreement may be found at http://www.music-cog.ohio-state.edu/HumdrumDatabases/Palestrina/license.txt
!!!EMD: converted to Humdrum by Bret Aarden
